dist/assets/img/catalog/exit.svg

<svg width="20" height="21" viewBox="0 0 20 21" fill="none" xmlns="http://www.w3.org/2000/svg">
<path d="M19.3336 0.979673C18.9576 0.596192 18.3499 0.596192 17.9739 0.979673L9.9999 9.11319L2.02587 0.979673C1.6499 0.596192 1.04221 0.596192 0.666248 0.979673C0.290287 1.36315 0.290287 1.983 0.666248 2.36648L8.64029 10.5L0.666248 18.6335C0.290287 19.017 0.290287 19.6368 0.666248 20.0203C0.853748 20.2116 1.0999 20.3077 1.34606 20.3077C1.59221 20.3077 1.83837 20.2116 2.02587 20.0203L9.9999 11.8868L17.9739 20.0203C18.1614 20.2116 18.4076 20.3077 18.6537 20.3077C18.8999 20.3077 19.1461 20.2116 19.3336 20.0203C19.7095 19.6368 19.7095 19.017 19.3336 18.6335L11.3595 10.5L19.3336 2.36648C19.7095 1.983 19.7095 1.36315 19.3336 0.979673Z" fill="black"/>
</svg>

<svg width="20" height="21" fill="none" xmlns="http://www.w3.org/2000/svg"><path d="M19.334.98a.947.947 0 00-1.36 0L10 9.113 2.026.98a.947.947 0 00-1.36 0 .994.994 0 000 1.386L8.64 10.5.666 18.634a.994.994 0 000 1.386.95.95 0 001.36 0L10 11.887l7.974 8.133a.95.95 0 001.36 0 .994.994 0 000-1.386L11.36 10.5l7.974-8.134a.994.994 0 000-1.386z" fill="#000"/></svg>
